images/logos/yandex-money.svg

<svg width="108" height="37" viewBox="0 0 108 37" fill="none" xmlns="http://www.w3.org/2000/svg">
<path d="M8.34375 33V28.0166H5.39062L2.74512 33H0.943359L3.91406 27.5508C2.26172 26.9004 1.43555 25.7373 1.43555 24.0615C1.43555 22.8428 1.83398 21.8965 2.63086 21.2227C3.43359 20.543 4.54688 20.2031 5.9707 20.2031H10.04V33H8.34375ZM3.12305 24.0615C3.12305 24.835 3.36328 25.4561 3.84375 25.9248C4.33008 26.3936 5.00391 26.6309 5.86523 26.6367H8.34375V21.5918H5.94434C5.03027 21.5918 4.33008 21.8086 3.84375 22.2422C3.36328 22.6758 3.12305 23.2822 3.12305 24.0615Z" fill="#DA2B07"/>
<path d="M20.2969 33H19.2422V28.6406H14.1182V33H13.0635V23.4902H14.1182V27.7529H19.2422V23.4902H20.2969V33ZM22.8984 32.1123L23.3643 31.5059C24.1025 30.5039 24.5273 29.0391 24.6387 27.1113L24.8057 23.4902H30.4219V32.1123H31.4062V35.7949H30.3604V33H23.2148V35.7949H22.2041L22.2129 32.1123H22.8984ZM24.1113 32.1123H29.3672V24.4746H25.8076L25.6934 26.9443C25.5879 29.2119 25.0605 30.9346 24.1113 32.1123ZM37.1191 33.1758C36.3105 33.1758 35.5781 32.9766 34.9219 32.5781C34.2715 32.1797 33.7646 31.626 33.4014 30.917C33.0381 30.2021 32.8564 29.4023 32.8564 28.5176V28.1396C32.8564 27.2256 33.0322 26.4023 33.3838 25.6699C33.7412 24.9375 34.2363 24.3633 34.8691 23.9473C35.502 23.5254 36.1875 23.3145 36.9258 23.3145C38.0801 23.3145 38.9941 23.71 39.668 24.501C40.3477 25.2861 40.6875 26.3613 40.6875 27.7266V28.3154H33.9023V28.5176C33.9023 29.5957 34.21 30.4951 34.8252 31.2158C35.4463 31.9307 36.2256 32.2881 37.1631 32.2881C37.7256 32.2881 38.2207 32.1855 38.6484 31.9805C39.082 31.7754 39.4746 31.4473 39.8262 30.9961L40.4854 31.4971C39.7119 32.6162 38.5898 33.1758 37.1191 33.1758ZM36.9258 24.2109C36.1348 24.2109 35.4668 24.501 34.9219 25.0811C34.3828 25.6611 34.0547 26.4404 33.9375 27.4189H39.6416V27.3047C39.6123 26.3906 39.3516 25.6465 38.8594 25.0723C38.3672 24.498 37.7227 24.2109 36.9258 24.2109ZM45.3193 28.6406H43.8604V33H42.7969V23.4902H43.8604V27.709H45.3018L48.791 23.4902H50.1182L46.2158 28.1045L50.5488 33H49.1602L45.3193 28.6406ZM55.4443 32.2881C56.1768 32.2881 56.7891 32.083 57.2812 31.6729C57.7793 31.2568 58.0488 30.7207 58.0898 30.0645H59.1006C59.0713 30.6445 58.8896 31.1748 58.5557 31.6553C58.2217 32.1299 57.7764 32.502 57.2197 32.7715C56.6689 33.041 56.0771 33.1758 55.4443 33.1758C54.1963 33.1758 53.2061 32.7422 52.4736 31.875C51.7471 31.0078 51.3838 29.8418 51.3838 28.377V28.0605C51.3838 27.123 51.5479 26.2939 51.876 25.5732C52.2041 24.8525 52.6729 24.2959 53.2822 23.9033C53.8975 23.5107 54.6152 23.3145 55.4355 23.3145C56.4785 23.3145 57.3369 23.625 58.0107 24.2461C58.6904 24.8672 59.0537 25.6846 59.1006 26.6982H58.0898C58.043 25.9541 57.7734 25.3535 57.2812 24.8965C56.7949 24.4395 56.1797 24.2109 55.4355 24.2109C54.4863 24.2109 53.748 24.5537 53.2207 25.2393C52.6992 25.9248 52.4385 26.8857 52.4385 28.1221V28.4297C52.4385 29.6426 52.6992 30.5889 53.2207 31.2686C53.748 31.9482 54.4893 32.2881 55.4443 32.2881Z" fill="white"/>
<path d="M107.2 14.6298C107 13.4298 105.9 12.6298 104.4 12.6298C103.9 12.6298 103.5 12.6298 103 12.6298C102.1 12.5298 101.9 12.8298 101.9 13.5298C101.9 17.0298 101.9 20.4298 101.9 23.9298C101.9 25.7298 100.1 27.6298 98 28.0298C91.4 29.5298 84.8 30.9298 78.2 32.4298C77.5 32.6298 76.7 32.6298 75.9 32.6298C75.6 32.6298 75.1 32.4298 75 32.1298C74.9 31.9298 75.2 31.5298 75.4 31.3298C75.7 31.1298 76.1 30.9298 76.5 30.7298C77.7 30.3298 79 29.9298 80.2 29.5298C85.1 27.9298 90 26.3298 94.9 24.6298C97.1 23.9298 98.3 22.4298 98.3 20.5298C98.4 14.5298 98.3 8.42977 98.3 2.42977C98.3 1.42977 97.8 0.629777 96.7 0.229777C95.4 -0.270223 94.2 0.129771 93.1 0.629771C86.1 3.92977 79.2 7.22978 72.2 10.5298C70.2 11.5298 69 12.9298 69 14.9298C69 20.6298 69 26.3298 69 32.0298C69 32.3298 69 32.6298 69.1 32.8298C69.8 34.7298 71.6 35.9298 74 35.9298C78.9 35.9298 83.8 35.9298 88.7 35.9298C93.6 35.9298 98.4 35.9298 103.3 35.9298C104.4 35.9298 105.3 35.7298 106.1 35.0298C107.1 34.2298 107.1 33.1298 107.1 32.1298C107.1 26.5298 107.1 21.0298 107.1 15.4298C107.3 15.3298 107.3 14.9298 107.2 14.6298ZM86.8 12.8298C87.3 11.5298 88.4 10.7298 90 10.5298C91.1 10.4298 92 11.0298 92.2 12.0298C92.4 13.5298 90.6 15.3298 88.7 15.3298C87.2 15.3298 86.3 14.2298 86.8 12.8298Z" fill="#E47418"/>
</svg>

<svg width="108" height="37" fill="none" xmlns="http://www.w3.org/2000/svg"><path d="M8.344 33v-4.983H5.39L2.745 33H.943l2.971-5.45c-1.652-.65-2.478-1.813-2.478-3.489 0-1.218.398-2.165 1.195-2.838.803-.68 1.916-1.02 3.34-1.02h4.069V33H8.344zm-5.22-8.939c-.001.774.24 1.395.72 1.864.486.469 1.16.706 2.021.712h2.479v-5.045h-2.4c-.914 0-1.614.217-2.1.65-.48.434-.72 1.04-.72 1.82z" fill="#DA2B07"/><path d="M20.297 33h-1.055v-4.36h-5.124V33h-1.055v-9.51h1.055v4.263h5.124V23.49h1.055V33zm2.601-.888l.466-.606c.738-1.002 1.163-2.467 1.275-4.395l.167-3.62h5.616v8.621h.984v3.683H30.36V33h-7.145v2.795h-1.01l.008-3.683h.685zm1.213 0h5.256v-7.637h-3.56l-.114 2.47c-.105 2.267-.633 3.99-1.582 5.167zm13.008 1.064a4.15 4.15 0 01-2.197-.598 4.088 4.088 0 01-1.52-1.661c-.364-.715-.546-1.515-.546-2.4v-.377c0-.914.176-1.738.528-2.47.357-.733.852-1.307 1.485-1.723a3.636 3.636 0 012.057-.633c1.154 0 2.068.396 2.742 1.187.68.785 1.02 1.86 1.02 3.226v.588h-6.786v.203c0 1.078.308 1.977.923 2.698.621.715 1.4 1.072 2.338 1.072.563 0 1.058-.102 1.485-.307.434-.206.827-.534 1.178-.985l.66.501c-.774 1.12-1.896 1.679-3.367 1.679zm-.193-8.965c-.791 0-1.46.29-2.004.87-.54.58-.867 1.36-.984 2.338h5.704v-.114c-.03-.914-.29-1.659-.783-2.233-.492-.574-1.136-.861-1.933-.861zm8.393 4.43H43.86V33h-1.063v-9.51h1.063v4.219h1.442l3.489-4.219h1.327l-3.902 4.615L50.549 33H49.16l-3.84-4.36zm10.125 3.647c.733 0 1.345-.205 1.837-.615a2.19 2.19 0 00.809-1.608h1.01c-.029.58-.21 1.11-.544 1.59a3.42 3.42 0 01-1.336 1.117 3.995 3.995 0 01-1.776.404c-1.248 0-2.238-.434-2.97-1.301-.727-.867-1.09-2.033-1.09-3.498v-.316c0-.938.164-1.767.492-2.488.328-.72.797-1.277 1.406-1.67.616-.392 1.333-.588 2.154-.588 1.042 0 1.9.31 2.575.931.68.621 1.043 1.439 1.09 2.452H58.09c-.047-.744-.317-1.345-.809-1.802-.486-.457-1.101-.685-1.846-.685-.949 0-1.687.343-2.214 1.028-.522.686-.782 1.647-.782 2.883v.308c0 1.213.26 2.159.782 2.839.527.68 1.268 1.02 2.223 1.02z" fill="#fff"/><path d="M107.2 14.63c-.2-1.2-1.3-2-2.8-2H103c-.9-.1-1.1.2-1.1.9v10.4c0 1.8-1.8 3.7-3.9 4.1-6.6 1.5-13.2 2.9-19.8 4.4-.7.2-1.5.2-2.3.2-.3 0-.8-.2-.9-.5-.1-.2.2-.6.4-.8.3-.2.7-.4 1.1-.6 1.2-.4 2.5-.8 3.7-1.2 4.9-1.6 9.8-3.2 14.7-4.9 2.2-.7 3.4-2.2 3.4-4.1.1-6 0-12.1 0-18.1 0-1-.5-1.8-1.6-2.2-1.3-.5-2.5-.1-3.6.4-7 3.3-13.9 6.6-20.9 9.9-2 1-3.2 2.4-3.2 4.4v17.1c0 .3 0 .6.1.8.7 1.9 2.5 3.1 4.9 3.1h29.3c1.1 0 2-.2 2.8-.9 1-.8 1-1.9 1-2.9v-16.7c.2-.1.2-.5.1-.8zm-20.4-1.8c.5-1.3 1.6-2.1 3.2-2.3 1.1-.1 2 .5 2.2 1.5.2 1.5-1.6 3.3-3.5 3.3-1.5 0-2.4-1.1-1.9-2.5z" fill="#E47418"/></svg>
